X:112
T:Der Gasn nigun
O:klezmer
M:3/4
L:1/8
Q:1/4=120
K:Dm
V:1
"Dm" f g3 g2 |"Gm" g4 f2 |"Dm" f(d4 (d)|d2) z2 f2 |
"Dm" fg3 g2 |"C7" ~g3 fa g|"F" f3 ca c|f2 z2 c2 |
"Fm" c3 fe f|g3 ^gb c'|"G" d'3 _e'd' c'|~b3 ^gg f|
"Dm" f3 e"Gm" g e|"Dm" f3 d"Cm"  (3_edc |"Dm" d3 d'a f|1 "Dm" d2 z2 f2 :|2
fine"Dm" Hd3 Ad f|| |:"Dm" ^g a3 a2 |a4 z^g |^ga3 a2 |
a3 df a|"Dm7" c'3 b (3c'ba |c'3 b (3c'ba |"Dm" ^ga3 a2 |
a3 Ad f|a3 ^g (3a^gf |a3 ^g (3a^gf |ef3 f2 |
f3 Ad e|"Dm" f3 e (3fed |f3 e"C"  (3fed |1 "Dm" ^cd3 d2 |
d3 Ad f:|2 "Dm" ^c d3 d2 |d6 |]





